assets/icons/courses.svg

<svg width="20" height="20" viewBox="0 0 20 20" fill="none" xmlns="http://www.w3.org/2000/svg">
<path d="M10.0003 6.42885C10.5956 4.07915 12.8437 2.87938 17.7384 2.85743C17.8167 2.85713 17.8942 2.87233 17.9666 2.90213C18.0389 2.93194 18.1046 2.97578 18.16 3.03111C18.2153 3.08644 18.2591 3.15218 18.2889 3.22453C18.3188 3.29688 18.3339 3.37441 18.3337 3.45266V14.1669C18.3337 14.3248 18.2709 14.4762 18.1593 14.5878C18.0477 14.6995 17.8963 14.7622 17.7384 14.7622C12.9765 14.7622 11.1369 15.7224 10.0003 17.1431M10.0003 6.42885C9.40509 4.07915 7.15695 2.87938 2.26223 2.85743C2.18398 2.85713 2.10645 2.87233 2.0341 2.90213C1.96175 2.93194 1.89601 2.97578 1.84068 3.03111C1.78535 3.08644 1.74151 3.15218 1.71171 3.22453C1.6819 3.29688 1.6667 3.37441 1.667 3.45266V14.0951C1.667 14.4627 1.89467 14.7622 2.26223 14.7622C7.02414 14.7622 8.87049 15.7294 10.0003 17.1431M10.0003 6.42885V17.1431" stroke="currentColor" stroke-width="1.25" stroke-linecap="round" stroke-linejoin="round"/>
</svg>

<svg xmlns="http://www.w3.org/2000/svg" width="20" height="20" fill="none" viewBox="0 0 20 20"><path stroke="currentColor" stroke-linecap="round" stroke-linejoin="round" stroke-width="1.25" d="M10 6.429c.596-2.35 2.844-3.55 7.738-3.572a.593.593 0 0 1 .596.596v10.714a.595.595 0 0 1-.596.595c-4.761 0-6.601.96-7.738 2.381M10 6.43c-.595-2.35-2.843-3.55-7.738-3.572a.593.593 0 0 0-.595.596v10.642c0 .368.228.667.595.667 4.762 0 6.608.967 7.738 2.381M10 6.43v10.714"/></svg>
